svg/nature/sunflower_fill.svg

<svg xmlns="http://www.w3.org/2000/svg" width="24" height="24" viewBox="0 0 24 24"><g fill="none" fill-rule="evenodd"><path d="M24,0 L24,24 L0,24 L0,0 L24,0 Z M12.5935,23.2578 L12.5819,23.2595 L12.5109,23.295 L12.4919,23.2987 L12.4767,23.295 L12.4057,23.2595 C12.3958,23.2564 12.387,23.259 12.3821,23.2649 L12.378,23.2758 L12.3609,23.7031 L12.3659,23.7235 L12.3769,23.7357 L12.4805,23.8097 L12.4953,23.8136 L12.5071,23.8097 L12.6107,23.7357 L12.6233,23.7197 L12.6267,23.7031 L12.6096,23.2758 C12.6076,23.2657 12.601,23.2593 12.5935,23.2578 Z M12.8584,23.1453 L12.8445,23.1473 L12.6598,23.2397 L12.6499,23.2499 L12.6472,23.2611 L12.6651,23.6906 L12.6699,23.7034 L12.6784,23.7105 L12.8793,23.8032 C12.8914,23.8069 12.9022,23.803 12.9078,23.7952 L12.9118,23.7812 L12.8777,23.1665 C12.8753,23.1546 12.8674,23.147 12.8584,23.1453 Z M12.143,23.1473 C12.1332,23.1424 12.1222,23.1453 12.1156,23.1526 L12.1099,23.1665 L12.0758,23.7812 C12.0751,23.7927 12.0828,23.8019 12.0926,23.8046 L12.1083,23.8032 L12.3092,23.7105 L12.3186,23.7024 L12.3225,23.6906 L12.3404,23.2611 L12.3372,23.2485 L12.3278,23.2397 L12.143,23.1473 Z"/><path fill="#09244B" d="M9.10889,5.02026 C8.30177,4.51558 7.46805,4.38427 6.79506,4.4015 C6.2091,4.4165 5.37917,4.50307 4.92893,4.92894 C4.50299,5.37908 4.41646,6.20921 4.40147,6.79511 C4.38425,7.46809 4.51558,8.30179 5.02025,9.1089 C4.09267,9.32276 3.41029,9.81944 2.9466,10.3075 C2.54287,10.7324 2.01724,11.3805 2,12 C2.01712,12.6195 2.54292,13.2677 2.94661,13.6926 C3.41031,14.1806 4.09269,14.6773 5.02026,14.8911 C4.51558,15.6982 4.38427,16.532 4.4015,17.2049 C4.41651,17.7915 4.5028,18.6205 4.92894,19.0711 C5.37907,19.497 6.20922,19.5835 6.79511,19.5985 C7.46809,19.6158 8.30179,19.4844 9.1089,18.9797 C9.32276,19.9073 9.81944,20.5897 10.3075,21.0534 C10.7324,21.4571 11.3806,21.9828 12,22 C12.6192,21.9829 13.2679,21.4568 13.6926,21.0534 C14.1806,20.5897 14.6773,19.9073 14.8911,18.9797 C15.6982,19.4844 16.532,19.6157 17.2049,19.5985 C17.7909,19.5835 18.6208,19.497 19.0711,19.0711 C19.497,18.6209 19.5835,17.7908 19.5985,17.2049 C19.6158,16.5319 19.4844,15.6982 18.9797,14.8911 C19.9073,14.6772 20.5897,14.1806 21.0534,13.6925 C21.4571,13.2675 21.9828,12.6195 22,12 C21.9829,11.3805 21.4571,10.7324 21.0534,10.3074 C20.5897,9.8194 19.9073,9.32275 18.9797,9.10889 C19.4844,8.30177 19.6157,7.46805 19.5985,6.79507 C19.5835,6.20911 19.4969,5.37916 19.0711,4.92893 C18.6209,4.50299 17.7908,4.41646 17.2049,4.40147 C16.5319,4.38425 15.6982,4.51558 14.8911,5.02025 C14.6772,4.09268 14.1806,3.41029 13.6925,2.9466 C13.2676,2.54287 12.6195,2.01724 12,2 C11.3801,2.01713 10.7328,2.54252 10.3074,2.94661 C9.81939,3.41031 9.32274,4.09269 9.10889,5.02026 Z M12,14 C13.1046,14 14,13.1046 14,12 C14,10.8954 13.1046,10 12,10 C10.8954,10 10,10.8954 10,12 C10,13.1046 10.8954,14 12,14 Z"/></g></svg>

<svg xmlns="http://www.w3.org/2000/svg" width="24" height="24"><g fill="none" fill-rule="evenodd"><path d="M24 0v24H0V0zM12.594 23.258l-.012.002-.071.035-.02.004-.014-.004-.071-.036c-.01-.003-.019 0-.024.006l-.004.01-.017.428.005.02.01.013.104.074.015.004.012-.004.104-.074.012-.016.004-.017-.017-.427c-.002-.01-.009-.017-.016-.018m.264-.113-.014.002-.184.093-.01.01-.003.011.018.43.005.012.008.008.201.092c.012.004.023 0 .029-.008l.004-.014-.034-.614c-.003-.012-.01-.02-.02-.022m-.715.002a.023.023 0 0 0-.027.006l-.006.014-.034.614c0 .012.007.02.017.024l.015-.002.201-.093.01-.008.003-.011.018-.43-.003-.012-.01-.01z"/><path fill="#09244B" d="M9.109 5.02a4.134 4.134 0 0 0-2.314-.618c-.586.014-1.416.101-1.866.527-.426.45-.513 1.28-.528 1.866a4.134 4.134 0 0 0 .62 2.314c-.928.214-1.61.71-2.074 1.198-.404.425-.93 1.073-.947 1.693.017.62.543 1.268.947 1.693A4.134 4.134 0 0 0 5.02 14.89a4.134 4.134 0 0 0-.618 2.314c.015.587.1 1.416.527 1.866.45.426 1.28.512 1.866.527a4.133 4.133 0 0 0 2.314-.618c.214.927.71 1.61 1.198 2.073.425.404 1.074.93 1.693.947.62-.017 1.268-.543 1.693-.947a4.134 4.134 0 0 0 1.198-2.073c.807.504 1.641.636 2.314.619.586-.015 1.416-.102 1.866-.528.426-.45.512-1.28.527-1.866a4.133 4.133 0 0 0-.618-2.314 4.134 4.134 0 0 0 2.073-1.198c.404-.425.93-1.073.947-1.693-.017-.62-.543-1.268-.947-1.693A4.134 4.134 0 0 0 18.98 9.11c.504-.807.636-1.641.619-2.314-.015-.586-.102-1.416-.528-1.866-.45-.426-1.28-.513-1.866-.528a4.134 4.134 0 0 0-2.314.62 4.134 4.134 0 0 0-1.198-2.074C13.268 2.543 12.62 2.017 12 2c-.62.017-1.267.543-1.693.947A4.134 4.134 0 0 0 9.11 5.02M12 14a2 2 0 1 0 0-4 2 2 0 0 0 0 4"/></g></svg>
